dist/img/svg/arrow-angle.svg

<svg width="9" height="7" viewBox="0 0 9 7" xmlns="http://www.w3.org/2000/svg">
<path d="M8.93373 5.34847C8.93373 5.4199 8.89801 5.50025 8.84444 5.55382L8.39801 6.00025C8.34444 6.05382 8.26408 6.08954 8.19265 6.08954C8.12123 6.08954 8.04087 6.05382 7.9873 6.00025L4.47837 2.49132L0.969439 6.00025C0.915867 6.05382 0.83551 6.08954 0.764082 6.08954C0.683725 6.08954 0.612296 6.05382 0.558725 6.00025L0.112296 5.55382C0.0587246 5.50025 0.0230103 5.4199 0.0230103 5.34847C0.0230103 5.27704 0.0587246 5.19668 0.112296 5.14311L4.27301 0.982396C4.32658 0.928824 4.40694 0.89311 4.47837 0.89311C4.5498 0.89311 4.63015 0.928824 4.68372 0.982396L8.84444 5.14311C8.89801 5.19668 8.93373 5.27704 8.93373 5.34847Z" />
</svg>

<svg width="9" height="7" viewBox="0 0 9 7" xmlns="http://www.w3.org/2000/svg"><path d="M8.934 5.348a.308.308 0 01-.09.206L8.398 6a.308.308 0 01-.205.09.308.308 0 01-.206-.09L4.478 2.491.97 6.001a.308.308 0 01-.205.089A.29.29 0 01.56 6l-.447-.446a.308.308 0 01-.089-.206c0-.071.036-.151.09-.205l4.16-4.16a.308.308 0 01.205-.09c.072 0 .152.036.206.09l4.16 4.16c.054.054.09.134.09.205z"/></svg>.00025L0.112296 5.55382C0.0587246 5.50025 0.0230103 5.4199 0.0230103 5.34847C0.0230103 5.27704 0.0587246 5.19668 0.112296 5.14311L4.27301 0.982396C4.32658 0.928824 4.40694 0.89311 4.47837 0.89311C4.5498 0.89311 4.63015 0.928824 4.68372 0.982396L8.84444 5.14311C8.89801 5.19668 8.93373 5.27704 8.93373 5.34847Z" />
</svg>
